public/assets/images/icons/green/edit/elmo.svg

<svg width="16" height="16" xmlns="http://www.w3.org/2000/svg" viewBox="0 0 16 16" shape-rendering="geometricPrecision" fill="#00962d"><defs><mask id="a"><rect fill="#fff" width="100%" height="100%"/><path d="M15.568.488c.365-.9-.337-1.487-.851-1.704-.593-.25-1.396-.157-1.78.752l-.142.357-2.14 5.317.603 2.278 1.98-1.23L15.44.788l.128-.3z" fill="#000"/></mask></defs><path d="M11.686 6.423l.6-.513-.675-.269zM14.245.038a.714.714 0 0 0-.927.393l-.213.531 1.326.532.214-.532h-.001a.714.714 0 0 0-.399-.924zM11.527 4.9l1.433-3.573 1.325.532-1.433 3.572z" fill="#cb1800"/><path mask="url(#a)" d="M12.377 4.153a2.267 2.267 0 0 0-2.102-3.12 2.263 2.263 0 0 0-2.198 1.732 2.246 2.246 0 0 0-2.194-1.764 2.25 2.25 0 0 0-2.25 2.25c0 .279.059.545.15.789-1.492.955-2.447 2.488-2.447 4.504 0 3.564 2.982 6.455 6.664 6.455 3.68 0 6.663-2.891 6.663-6.455.001-1.941-.887-3.432-2.286-4.391zm-4.419-.912c1.12 0 2.029 1.143 2.029 2.553 0 1.408-.909 2.551-2.029 2.551-1.121 0-2.029-1.143-2.029-2.551-.001-1.41.907-2.553 2.029-2.553zm.195 10.412c-4.655 0-4.948-4.637-4.948-4.637-.001 0 2.093.635 4.792.635 2.976 0 5.086-.652 5.087-.652-.001 0-.711 4.654-4.931 4.654z"/></svg>

<?xml version="1.0"?><!DOCTYPE svg PUBLIC "-//W3C//DTD SVG 1.1//EN" "http://www.w3.org/Graphics/SVG/1.1/DTD/svg11.dtd"><svg width="16px" height="16px" xmlns="http://www.w3.org/2000/svg" viewBox="0 0 16 16" shape-rendering="geometricPrecision" fill="#00962d"><defs><mask id="edit-path"><rect fill="#fff" width="100%" height="100%"/><path d="M15.568,0.488c0.365-0.9-0.337-1.487-0.851-1.704c-0.593-0.25-1.396-0.157-1.78,0.752l-0.142,0.357 l-2.14,5.317l0.603,2.278l1.98-1.23l2.202-5.47L15.568,0.488z" fill="#000"/></mask></defs><g id="edit_3_" display="inline" fill="#cb1800"><polygon points="11.686,6.423 12.286,5.91 11.611,5.641 "/><path d="M14.245,0.038c-0.365-0.147-0.778,0.03-0.927,0.393l-0.213,0.531l1.326,0.532l0.214-0.532h-0.001 C14.787,0.597,14.61,0.183,14.245,0.038z"/><rect x="10.982" y="2.666" transform="matrix(0.3723 -0.9281 0.9281 0.3723 4.9642 14.0992)" width="3.849" height="1.428"/></g><path mask="url(#edit-path)" d="M12.377,4.153c0.106-0.264,0.167-0.551,0.167-0.85c0-1.256-1.015-2.27-2.269-2.27 c-1.067,0-1.956,0.738-2.198,1.732C7.856,1.757,6.96,1.001,5.883,1.001c-1.242,0-2.25,1.008-2.25,2.25 c0,0.279,0.059,0.545,0.15,0.789C2.291,4.995,1.336,6.528,1.336,8.544c0,3.564,2.982,6.455,6.664,6.455 c3.68,0,6.663-2.891,6.663-6.455C14.664,6.603,13.776,5.112,12.377,4.153z M7.958,3.241c1.12,0,2.029,1.143,2.029,2.553 c0,1.408-0.909,2.551-2.029,2.551c-1.121,0-2.029-1.143-2.029-2.551C5.928,4.384,6.836,3.241,7.958,3.241z M8.153,13.653 c-4.655,0-4.948-4.637-4.948-4.637c-0.001,0,2.093,0.635,4.792,0.635c2.976,0,5.086-0.652,5.087-0.652 C13.083,8.999,12.373,13.653,8.153,13.653z"/></svg>
